X:1
T:James Gibb editions
T:Da poi ch'io vidi - Antonelli da Rimini
%%score [ 1 2 3 ]
L:1/8
Q:1/4=120
M:2/2
K:C
V:1 treble-8 nm="Tenor I" snm="T I"
V:2 treble-8 nm="Tenor II" snm="T II"
V:3 bass nm="Bass" snm="B"
V:1
 z2"^Da poi ch'io vidi" e2 d2 c2 | B4 c2 (A2 | A2) B2 A2 B2 | c4 B4 | e2 ed c2 A2 | %5
w: Da poi ch'io|vi- di la|* tua gran bel-|lez- za|Su- bi- to cor- si~~e|
w: Trat- ta- lo|be- ne dun-|que al- ma mia|bel- la|Ac- ciò di cor- te-|
[M:2/2][K:treble-8] B3 c B2 c2 | B4 ^c4 ||[M:3/2][Q:1/4=240] e4 e4 e4 | e8 a4 || %9
w: ci do- nai 'sto|co- re|Trat- ta- lo|ben ò|
w: si- a~~e di bel-|ta- de|A- van- zi~~o-|gn'al- tra~~in|
[M:2/2][Q:1/4=160] ^f8 | d8 || %11
w: co-|re|
w: que-|sta,|
[M:3/2][K:treble-8][Q:1/4=160][Q:1/4=240][Q:1/4=160][Q:1/4=160] d4 d4 d4 | d8 d4 | e8 d4 | c8 d4 || %15
w: Trat- ta- lo|ben ò|co- re|del mio|
w: in que- sta|nos- tra~~e-|ta- te,|nos- tra~~e-|
[M:2/2][Q:1/4=160] B8 | !fermata!^c8 |] %17
w: co-|re.|
w: ta-|te.|
V:2
 z2 c2 B2 A2 | ^G4 A2 (^F2 | ^F2) ^G2 F2 =G2 | A4 ^G4 | c2 cB A2 A2 | %5
w: Da poi ch'io|vi- di la|* tua gran bel-|lez- za|Su- bi- to cor- si~~e|
w: Trat- ta- lo|be- ne dun-|que al- ma mia|bel- la|Ac- ciò di cor- te-|
[M:2/2][K:treble-8] ^G3 A G2 A2 | (A2 ^G2) A4 ||[M:3/2] ^c4 c4 c4 | ^c8 c4 ||[M:2/2] d8 | B8 || %11
w: ci do- nai 'sto|co\- * re|Trat- ta- lo|ben ò|co-|re,|
w: si- a~~e di bel-|ta\- * de|A- van- zi~~o-|gn'al- tra~~in|que-|sta,|
[M:3/2][K:treble-8] B4 B4 B4 | B8 B4 | c8 B4 | A8 A4 ||[M:2/2] (A4 ^G4) | !fermata!A8 |] %17
w: Trat- ta- lo|ben ò|co- re|del mio|co\- *|re.|
w: in que- sta|nos- tra~~e-|ta- te,|nos- tra~~e-|ta\- *|te.|
V:3
 z2 C,2 G,,2 A,,2 | E,4 A,,2 (D,2 | D,2) E,2 D,2 E,2 | (A,,B,,C,D,) E,4 | C,2 C,G, F,2 D,2 | %5
w: Da poi ch'io|vi- di la|* tua gran bel-|lez\- * * * za|Su- bi- to cor- si~~e|
w: Trat- ta- lo|be- ne dun-|que al- ma mia|bel\- * * * la|Ac- ciò di cor- te-|
[M:2/2] E,3 A,, E,2 F,2 | E,4 A,,4 ||[M:3/2] A,4 A,4 A,4 | A,8 A,4 ||[M:2/2] D,8 | G,8 || %11
w: ci do- nai 'sto|co- re|Trat- ta- lo|ben ò|co-|re,|
w: si- a~~e di bel-|ta- de|A- van- zi~~o-|gn'al- tra~~in|que-|sta,|
[M:3/2] G,4 G,4 G,4 | G,8 G,4 | C,8 G,4 | F,8 D,4 ||[M:2/2] E,8 | !fermata!A,,8 |] %17
w: Trat- ta- lo|ben ò|co- re|del mio|co-|re.|
w: in que- sta|nos- tra~~e-|ta- te,|nos- tra~~e-|ta-|te.|

